components/ui-node-icon/src/replace/replace.small.svg

<svg width="16" height="16" viewBox="0 0 16 16" fill="none" xmlns="http://www.w3.org/2000/svg">
  <path fill-rule="evenodd" clip-rule="evenodd" d="M10 7.5C10 7.77614 10.2239 8 10.5 8C10.7761 8 11 7.77614 11 7.5V7.16546H11.0746C11.277 7.56319 11.9638 8.11006 12.9013 8.11006C14.1868 8.11006 15 7.09089 15 5.29401C15 3.47583 14.1584 2.48862 12.8977 2.48862C11.9354 2.48862 11.2486 3.10581 11.0533 3.49999H11V1.5C11 1.22386 10.7761 1 10.5 1C10.2239 1 10 1.22386 10 1.5V7.5ZM11.2607 5.28691C11.2607 4.22867 11.7152 3.5433 12.5426 3.5433C13.3984 3.5433 13.85 4.29969 13.85 5C13.85 6.0433 13.3913 7.05538 12.5426 7.05538C11.7223 7.05538 11.2607 6.34515 11.2607 5.28691ZM5.5 4C3.29086 4 1.5 5.79086 1.5 8C1.5 10.2091 3.29086 12 5.5 12H5.79289L4.64645 13.1464C4.45118 13.3417 4.45118 13.6583 4.64645 13.8536C4.84171 14.0488 5.15829 14.0488 5.35355 13.8536L7.35355 11.8536C7.54882 11.6583 7.54882 11.3417 7.35355 11.1464L5.35355 9.14645C5.15829 8.95118 4.84171 8.95118 4.64645 9.14645C4.45118 9.34171 4.45118 9.65829 4.64645 9.85355L5.79289 11H5.5C3.84315 11 2.5 9.65685 2.5 8C2.5 6.34315 3.84315 5 5.5 5H7C7.27614 5 7.5 4.77614 7.5 4.5C7.5 4.22386 7.27614 4 7 4H5.5ZM14.8059 13.3399C14.4914 14.2389 13.7069 15 12.6065 15C10.9766 15 10 13.6513 10 12C10 10.3345 11.0085 9.5 12.6065 9.5C13.605 9.5 14.4018 9.95954 14.7755 10.6879C14.9844 11.0952 14.6097 11.5 14.1519 11.5C13.7738 11.5 13.4903 11.2105 13.3053 10.8807C13.1774 10.6527 12.9748 10.5 12.6243 10.5C11.8324 10.5 11.3033 10.8778 11.3033 11.9787C11.3033 13.0938 11.8217 13.836 12.6243 13.836C13.0231 13.836 13.351 13.5422 13.5481 13.1632C13.6906 12.889 13.9455 12.6612 14.2546 12.6612C14.6295 12.6612 14.9297 12.9859 14.8059 13.3399Z" fill="currentColor"/>
</svg>

<svg xmlns="http://www.w3.org/2000/svg" width="16" height="16" fill="none" viewBox="0 0 16 16">
  <path fill="currentColor" fill-rule="evenodd" d="M10 7.5a.5.5 0 0 0 1 0v-.335h.075c.202.398.889.945 1.826.945C14.187 8.11 15 7.09 15 5.294c0-1.818-.842-2.805-2.102-2.805-.963 0-1.65.617-1.845 1.011H11v-2a.5.5 0 0 0-1 0v6Zm1.26-2.213c0-1.058.455-1.744 1.283-1.744.855 0 1.307.757 1.307 1.457 0 1.043-.459 2.055-1.307 2.055-.82 0-1.282-.71-1.282-1.768ZM5.5 4a4 4 0 1 0 0 8h.293l-1.147 1.146a.5.5 0 0 0 .708.708l2-2a.5.5 0 0 0 0-.708l-2-2a.5.5 0 1 0-.708.708L5.793 11H5.5a3 3 0 0 1 0-6H7a.5.5 0 0 0 0-1H5.5Zm9.306 9.34c-.315.899-1.1 1.66-2.2 1.66C10.977 15 10 13.651 10 12c0-1.665 1.008-2.5 2.607-2.5.998 0 1.795.46 2.168 1.188.21.407-.165.812-.623.812-.378 0-.662-.29-.847-.62-.128-.227-.33-.38-.68-.38-.793 0-1.322.378-1.322 1.479 0 1.115.519 1.857 1.321 1.857.4 0 .727-.294.924-.673.143-.274.397-.502.707-.502.374 0 .675.325.55.679Z" clip-rule="evenodd"/>
</svg>
